assets/img/partners/partners_logo.svg

<svg width="309" height="26" viewBox="0 0 309 26" fill="none" xmlns="http://www.w3.org/2000/svg">
<path d="M167.654 5.34973L163.209 17.3514L158.786 5.34973H154.852L161.22 21.2566H164.994L171.428 5.34973H167.654Z" fill="#112E51"/>
<path fill-rule="evenodd" clip-rule="evenodd" d="M135.747 13.3274C135.747 8.66703 139.505 5.23645 144.45 5.23645C149.407 5.23645 153.159 8.75873 153.159 13.3274C153.159 17.8962 149.401 21.4184 144.45 21.4184C139.5 21.4184 135.747 17.9879 135.747 13.3274ZM139.505 13.3059C139.49 16.0335 141.727 18.2584 144.505 18.2791C145.827 18.2679 147.088 17.738 148.009 16.8078C148.93 15.8775 149.433 14.6243 149.407 13.3274C149.435 12.0297 148.932 10.775 148.011 9.84361C147.09 8.91219 145.828 8.38161 144.505 8.37036C143.173 8.36598 141.895 8.88544 140.955 9.81276C140.016 10.7401 139.494 11.9981 139.505 13.3059Z" fill="#112E51"/>
<path d="M125.324 8.34879C126.977 8.38911 128.557 9.02014 129.769 10.1234L131.83 7.55587C130.003 6.06146 127.702 5.24099 125.324 5.23645C120.275 5.23645 116.484 8.71558 116.484 13.3274C116.484 17.9393 120.214 21.4184 125.121 21.4184C127.478 21.3798 129.772 20.6593 131.714 19.3471V12.5076H125.687V15.3178H128.516V17.4161C127.54 17.9352 126.456 18.2303 125.346 18.2791C123.499 18.3389 121.766 17.4058 120.825 15.845C119.884 14.2842 119.884 12.3437 120.825 10.7829C121.766 9.22209 123.499 8.28902 125.346 8.34879H125.324Z" fill="#112E51"/>
<path d="M111.588 17.2434C111.027 17.2292 110.486 17.4452 110.095 17.8395C109.704 18.2338 109.498 18.7705 109.527 19.3201C109.488 20.0667 109.871 20.7737 110.524 21.1586C111.177 21.5435 111.993 21.5435 112.646 21.1586C113.299 20.7737 113.682 20.0667 113.643 19.3201C113.677 18.7701 113.474 18.2314 113.083 17.8361C112.692 17.4409 112.149 17.2257 111.588 17.2434Z" fill="#112E51"/>
<path d="M101.22 15.5767L93.3462 5.34973H90.011V21.2566H93.5055V11.0566L101.357 21.2566H104.687V5.34973H101.22V15.5767Z" fill="#112E51"/>
<rect x="80.7307" y="5.34973" width="3.65932" height="15.9069" fill="#112E51"/>
<path d="M69.0878 8.34879C70.7402 8.38911 72.3208 9.02014 73.5329 10.1234L75.5933 7.55587C73.7668 6.06146 71.4655 5.24099 69.0878 5.23645C64.0384 5.23645 60.2417 8.71558 60.2417 13.3274C60.2417 17.9393 63.9725 21.4184 68.8791 21.4184C71.2366 21.3798 73.5301 20.6593 75.4725 19.3471V12.5076H69.4505V15.3178H72.2802V17.4161C71.3034 17.9352 70.2194 18.2303 69.1098 18.2791C67.2631 18.3389 65.5301 17.4058 64.5887 15.845C63.6473 14.2842 63.6473 12.3437 64.5887 10.7829C65.5301 9.22209 67.2631 8.28902 69.1098 8.34879H69.0878Z" fill="#112E51"/>
<path fill-rule="evenodd" clip-rule="evenodd" d="M39.3572 13.3274C39.3572 8.66703 43.1154 5.23645 48.0605 5.23645C53.0165 5.23645 56.7638 8.75873 56.7638 13.3274C56.7638 17.8962 53.0165 21.4184 48.0605 21.4184C43.1044 21.4184 39.3572 17.9879 39.3572 13.3274ZM43.1044 13.3274C43.1013 16.0466 45.3346 18.2584 48.1044 18.2791C49.4275 18.2707 50.692 17.7422 51.6151 16.8116C52.5382 15.881 53.043 14.6261 53.0165 13.3274C53.0385 12.0316 52.5318 10.7808 51.6092 9.85379C50.6865 8.92676 49.4246 8.4004 48.1044 8.39194C46.7722 8.38756 45.4937 8.90702 44.5542 9.83434C43.6148 10.7617 43.0927 12.0196 43.1044 13.3274Z" fill="#112E51"/>
<path d="M29.8077 5.34973H26.1483V21.2566H36.7527V18.1227H29.8077V5.34973Z" fill="#112E51"/>
<path d="M15.6209 2H9.0769V24.6548C15.2857 21.9578 17.456 18.4625 18.0055 17.3729C18.1087 17.1646 18.1614 16.9357 18.1593 16.704V4.49203C18.1593 3.8311 17.8919 3.19724 17.4158 2.7299C16.9398 2.26255 16.2941 2 15.6209 2Z" fill="#B51E23"/>
<path d="M2.5384 2C1.13644 2 -6.56399e-05 3.11572 -6.56399e-05 4.49203V16.704C-0.00209363 16.9357 0.050565 17.1646 0.153781 17.3729C0.703231 18.4517 2.90103 21.974 9.07686 24.6548V2H2.5384Z" fill="#E21D3E"/>
<path d="M10.6868 11.7631C11.55 11.0964 11.8878 9.96602 11.5285 8.94722C11.1692 7.92842 10.1917 7.24512 9.09343 7.24512C7.9952 7.24512 7.01765 7.92842 6.65833 8.94722C6.29902 9.96602 6.63691 11.0964 7.50002 11.7631C7.21431 13.3489 6.93226 14.9348 6.65387 16.5206C7.45422 16.6559 8.26481 16.7245 9.07695 16.7256C9.90069 16.7417 10.7243 16.6876 11.5385 16.5637C11.2528 14.9455 10.989 13.3597 10.6868 11.7631Z" fill="white"/>
<path d="M175.628 21V5.094H181.711C182.87 5.094 183.915 5.29933 184.846 5.71C185.777 6.12067 186.511 6.722 187.046 7.514C187.589 8.29867 187.86 9.25933 187.86 10.396C187.86 11.9727 187.347 13.2047 186.32 14.092C185.301 14.9793 183.926 15.423 182.195 15.423H179.39V21H175.628ZM179.357 12.585H182.085C182.752 12.585 183.302 12.3503 183.735 11.881C184.175 11.4043 184.395 10.8433 184.395 10.198C184.395 9.53067 184.16 8.98433 183.691 8.559C183.229 8.12633 182.683 7.91 182.052 7.91H179.357V12.585ZM189.364 21L195.018 5.094H198.901L204.566 21H200.848L199.671 17.612H194.303L193.104 21H189.364ZM195.117 14.389H198.813L196.976 8.691L195.117 14.389ZM221.435 21H217.585L215.132 15.192H212.404V21H208.653V5.094H215.616C216.944 5.094 218.018 5.31033 218.839 5.743C219.661 6.16833 220.262 6.755 220.643 7.503C221.025 8.24367 221.215 9.087 221.215 10.033C221.215 11.2723 220.959 12.2403 220.445 12.937C219.932 13.6263 219.305 14.1763 218.564 14.587L221.435 21ZM215.099 12.365C215.803 12.365 216.368 12.145 216.793 11.705C217.226 11.2577 217.442 10.7223 217.442 10.099C217.442 9.45367 217.222 8.92567 216.782 8.515C216.342 8.10433 215.818 7.899 215.209 7.899H212.404V12.365H215.099ZM224.675 8.405V5.094H237.71V8.405H233.09V21H229.328V8.405H224.675ZM252.205 5.094H255.945V21H252.568L245.473 10.792V21H241.722V5.094H245.473L252.205 14.796V5.094ZM261.21 21V5.094H272.551L272.529 8.218H264.983V11.463H271.418V14.521H264.961V17.843L272.617 17.854V21H261.21ZM290.15 21H286.3L283.847 15.192H281.119V21H277.368V5.094H284.331C285.659 5.094 286.733 5.31033 287.554 5.743C288.376 6.16833 288.977 6.755 289.358 7.503C289.74 8.24367 289.93 9.087 289.93 10.033C289.93 11.2723 289.674 12.2403 289.16 12.937C288.647 13.6263 288.02 14.1763 287.279 14.587L290.15 21ZM283.814 12.365C284.518 12.365 285.083 12.145 285.508 11.705C285.941 11.2577 286.157 10.7223 286.157 10.099C286.157 9.45367 285.937 8.92567 285.497 8.515C285.057 8.10433 284.533 7.899 283.924 7.899H281.119V12.365H283.814ZM300.827 21.22C300.021 21.22 299.225 21.121 298.44 20.923C297.663 20.7177 296.948 20.4133 296.295 20.01C295.65 19.5993 295.118 19.086 294.7 18.47C294.29 17.854 294.044 17.1317 293.963 16.303H297.791C297.931 16.9483 298.268 17.447 298.803 17.799C299.339 18.1437 300.006 18.316 300.805 18.316C301.311 18.316 301.784 18.261 302.224 18.151C302.664 18.0337 303.02 17.8503 303.291 17.601C303.563 17.3443 303.698 17.007 303.698 16.589C303.698 16.2297 303.574 15.9437 303.324 15.731C303.082 15.511 302.76 15.3387 302.356 15.214C301.953 15.082 301.517 14.972 301.047 14.884L298.451 14.389C297.241 14.1763 296.273 13.6923 295.547 12.937C294.821 12.1817 294.447 11.1587 294.425 9.868C294.411 8.834 294.686 7.94667 295.25 7.206C295.815 6.46533 296.578 5.897 297.538 5.501C298.506 5.09767 299.577 4.896 300.75 4.896C302.158 4.896 303.346 5.11233 304.314 5.545C305.29 5.97033 306.03 6.55333 306.536 7.294C307.042 8.03467 307.303 8.87433 307.317 9.813H303.588C303.515 9.087 303.229 8.57367 302.73 8.273C302.239 7.97233 301.605 7.822 300.827 7.822C299.984 7.822 299.361 7.98333 298.957 8.306C298.554 8.62133 298.352 8.99167 298.352 9.417C298.352 9.835 298.484 10.1723 298.748 10.429C299.02 10.6783 299.537 10.88 300.299 11.034L302.884 11.518C303.933 11.7087 304.765 12.002 305.381 12.398C305.997 12.794 306.452 13.2413 306.745 13.74C307.039 14.2313 307.229 14.73 307.317 15.236C307.405 15.7347 307.449 16.1857 307.449 16.589C307.449 17.4617 307.163 18.25 306.591 18.954C306.027 19.6507 305.246 20.2043 304.248 20.615C303.258 21.0183 302.118 21.22 300.827 21.22Z" fill="#E21C3D"/>
</svg>

<svg width="309" height="26" viewBox="0 0 309 26" fill="none" xmlns="http://www.w3.org/2000/svg"><path d="M167.654 5.35l-4.445 12.001-4.423-12.001h-3.934l6.368 15.907h3.774l6.434-15.907h-3.774z" fill="#112E51"/><path fill-rule="evenodd" clip-rule="evenodd" d="M135.747 13.327c0-4.66 3.758-8.09 8.703-8.09 4.957 0 8.709 3.522 8.709 8.09 0 4.57-3.758 8.091-8.709 8.091-4.95 0-8.703-3.43-8.703-8.09zm3.758-.021c-.015 2.728 2.222 4.952 5 4.973a4.99 4.99 0 003.504-1.471 4.808 4.808 0 001.398-3.48 4.807 4.807 0 00-1.396-3.484 4.99 4.99 0 00-3.506-1.474 5.032 5.032 0 00-3.55 1.443 4.852 4.852 0 00-1.45 3.493z" fill="#112E51"/><path d="M125.324 8.349a6.852 6.852 0 014.445 1.774l2.061-2.567a10.31 10.31 0 00-6.506-2.32c-5.049 0-8.84 3.48-8.84 8.091 0 4.612 3.73 8.091 8.637 8.091a12.136 12.136 0 006.593-2.07v-6.84h-6.027v2.81h2.829v2.098a7.45 7.45 0 01-3.17.863 5.082 5.082 0 01-4.521-2.434 4.891 4.891 0 010-5.062 5.082 5.082 0 014.521-2.434h-.022zM111.588 17.243a2.03 2.03 0 00-1.493.597 1.956 1.956 0 00-.568 1.48 2.014 2.014 0 00.997 1.839 2.094 2.094 0 002.122 0 2.014 2.014 0 00.997-1.839 1.94 1.94 0 00-.56-1.484 2.015 2.015 0 00-1.495-.593zM101.22 15.577L93.346 5.35h-3.335v15.907h3.495v-10.2l7.851 10.2h3.33V5.35h-3.467v10.227zM80.731 5.35h3.659v15.907h-3.659zM69.088 8.349a6.853 6.853 0 014.445 1.774l2.06-2.567a10.308 10.308 0 00-6.505-2.32c-5.05 0-8.846 3.48-8.846 8.091 0 4.612 3.73 8.091 8.637 8.091a12.137 12.137 0 006.593-2.07v-6.84h-6.021v2.81h2.83v2.098c-.978.52-2.062.814-3.171.863a5.083 5.083 0 01-4.521-2.434 4.89 4.89 0 010-5.062 5.083 5.083 0 014.52-2.434h-.021z" fill="#112E51"/><path fill-rule="evenodd" clip-rule="evenodd" d="M39.357 13.327c0-4.66 3.758-8.09 8.703-8.09 4.956 0 8.704 3.522 8.704 8.09 0 4.57-3.748 8.091-8.704 8.091s-8.703-3.43-8.703-8.09zm3.747 0c-.003 2.72 2.23 4.931 5 4.952a4.99 4.99 0 003.511-1.467 4.807 4.807 0 001.401-3.485 4.808 4.808 0 00-1.407-3.473 4.99 4.99 0 00-3.505-1.462 5.031 5.031 0 00-3.55 1.442 4.847 4.847 0 00-1.45 3.493z" fill="#112E51"/><path d="M29.808 5.35h-3.66v15.907h10.605v-3.134h-6.945V5.35z" fill="#112E51"/><path d="M15.62 2H9.078v22.655c6.209-2.697 8.379-6.193 8.929-7.282.103-.208.155-.437.153-.669V4.492c0-.66-.267-1.295-.743-1.762A2.562 2.562 0 0015.62 2z" fill="#B51E23"/><path d="M2.538 2C1.136 2 0 3.116 0 4.492v12.212c-.002.232.05.46.154.669.55 1.079 2.747 4.601 8.923 7.282V2H2.538z" fill="#E21D3E"/><path d="M10.687 11.763a2.502 2.502 0 00.841-2.816 2.574 2.574 0 00-2.435-1.702 2.574 2.574 0 00-2.435 1.702 2.502 2.502 0 00.842 2.816c-.286 1.586-.568 3.172-.846 4.758.8.135 1.61.203 2.423.205.824.016 1.647-.038 2.462-.162-.286-1.619-.55-3.204-.852-4.8z" fill="#fff"/><path d="M175.628 21V5.094h6.083c1.159 0 2.204.205 3.135.616.931.41 1.665 1.012 2.2 1.804.543.785.814 1.745.814 2.882 0 1.577-.513 2.809-1.54 3.696-1.019.887-2.394 1.331-4.125 1.331h-2.805V21h-3.762zm3.729-8.415h2.728c.667 0 1.217-.235 1.65-.704a2.4 2.4 0 00.66-1.683c0-.667-.235-1.214-.704-1.639a2.317 2.317 0 00-1.639-.649h-2.695v4.675zM189.364 21l5.654-15.906h3.883L204.566 21h-3.718l-1.177-3.388h-5.368L193.104 21h-3.74zm5.753-6.611h3.696l-1.837-5.698-1.859 5.698zM221.435 21h-3.85l-2.453-5.808h-2.728V21h-3.751V5.094h6.963c1.328 0 2.402.216 3.223.649.822.425 1.423 1.012 1.804 1.76.382.74.572 1.584.572 2.53 0 1.24-.256 2.207-.77 2.904a5.868 5.868 0 01-1.881 1.65L221.435 21zm-6.336-8.635c.704 0 1.269-.22 1.694-.66.433-.447.649-.983.649-1.606 0-.645-.22-1.173-.66-1.584a2.226 2.226 0 00-1.573-.616h-2.805v4.466h2.695zm9.576-3.96V5.094h13.035v3.311h-4.62V21h-3.762V8.405h-4.653zm27.53-3.311h3.74V21h-3.377l-7.095-10.208V21h-3.751V5.094h3.751l6.732 9.702V5.094zM261.21 21V5.094h11.341l-.022 3.124h-7.546v3.245h6.435v3.058h-6.457v3.322l7.656.011V21H261.21zm28.94 0h-3.85l-2.453-5.808h-2.728V21h-3.751V5.094h6.963c1.328 0 2.402.216 3.223.649.822.425 1.423 1.012 1.804 1.76.382.74.572 1.584.572 2.53 0 1.24-.256 2.207-.77 2.904a5.868 5.868 0 01-1.881 1.65L290.15 21zm-6.336-8.635c.704 0 1.269-.22 1.694-.66.433-.447.649-.983.649-1.606 0-.645-.22-1.173-.66-1.584a2.226 2.226 0 00-1.573-.616h-2.805v4.466h2.695zm17.013 8.855a9.725 9.725 0 01-2.387-.297 7.893 7.893 0 01-2.145-.913 5.423 5.423 0 01-1.595-1.54c-.41-.616-.656-1.338-.737-2.167h3.828c.14.645.477 1.144 1.012 1.496.536.345 1.203.517 2.002.517.506 0 .979-.055 1.419-.165.44-.117.796-.3 1.067-.55.272-.257.407-.594.407-1.012 0-.36-.124-.645-.374-.858-.242-.22-.564-.392-.968-.517a10.29 10.29 0 00-1.309-.33l-2.596-.495c-1.21-.213-2.178-.697-2.904-1.452s-1.1-1.778-1.122-3.069c-.014-1.034.261-1.921.825-2.662.565-.74 1.328-1.309 2.288-1.705.968-.403 2.039-.605 3.212-.605 1.408 0 2.596.216 3.564.649.976.425 1.716 1.008 2.222 1.749.506.74.767 1.58.781 2.519h-3.729c-.073-.726-.359-1.24-.858-1.54-.491-.3-1.125-.451-1.903-.451-.843 0-1.466.161-1.87.484-.403.315-.605.686-.605 1.111 0 .418.132.755.396 1.012.272.25.789.451 1.551.605l2.585.484c1.049.19 1.881.484 2.497.88.616.396 1.071.843 1.364 1.342.294.491.484.99.572 1.496.088.499.132.95.132 1.353 0 .873-.286 1.661-.858 2.365-.564.697-1.345 1.25-2.343 1.661-.99.403-2.13.605-3.421.605z" fill="#E21C3D"/></svg>
